assets/icons/standard/schedule_objective.svg

<?xml version="1.0"?><svg xmlns="http://www.w3.org/2000/svg" width="100" height="100" viewBox="0 0 100 100"><title></title><path d="m76 42h-52a2 2 0 0 0-2 2v30a6 6 0 0 0 6 6h44a6 6 0 0 0 6-6v-30a2 2 0 0 0-2-2z m-26 34.1a15.1 15.1 0 1 1 15.1-15.1 15.2 15.2 0 0 1-15.1 15.1z m0-25.2a10.1 10.1 0 1 0 10.1 10.1 10.1 10.1 0 0 0-10.1-10.1z m0 15.1a5.1 5.1 0 0 1-5-5 5 5 0 0 1 10 0 5.1 5.1 0 0 1-5 5z m22-40h-5v-2a4 4 0 0 0-8 0v2h-18v-2a4 4 0 0 0-8 0v2h-5a6 6 0 0 0-6 6v2a2 2 0 0 0 2 2h52a2 2 0 0 0 2-2v-2a6 6 0 0 0-6-6z" fill="#fff"></path></svg>

<svg data-name="Layer 1" xmlns="http://www.w3.org/2000/svg" width="100" height="100" viewBox="0 0 100 100"><path d="M76,42H24a2,2,0,0,0-2,2V74a6,6,0,0,0,6,6H72a6,6,0,0,0,6-6V44A2,2,0,0,0,76,42ZM50,76.1A15.1,15.1,0,1,1,65.1,61,15.15,15.15,0,0,1,50,76.1Z" fill="#fff"/><path d="M50,50.9A10.1,10.1,0,1,0,60.1,61,10.14,10.14,0,0,0,50,50.9ZM50,66a5.08,5.08,0,0,1-5-5,5,5,0,0,1,10,0A5.08,5.08,0,0,1,50,66Z" fill="#fff"/><path d="M72,26H67V24a4,4,0,0,0-8,0v2H41V24a4,4,0,0,0-8,0v2H28a6,6,0,0,0-6,6v2a2,2,0,0,0,2,2H76a2,2,0,0,0,2-2V32A6,6,0,0,0,72,26Z" fill="#fff"/></svg>
